Themes/OneUI/assets/svg/ic_settings_about.svg

<?xml version="1.0" encoding="UTF-8" standalone="no"?>
<svg
   width="28.000021"
   height="28.000021"
   viewBox="0 0 28.000021 28.000021"
   fill="none"
   version="1.1"
   id="svg883"
   sodipodi:docname="ic_settings_about.svg"
   xmlns:inkscape="http://www.inkscape.org/namespaces/inkscape"
   xmlns:sodipodi="http://sodipodi.sourceforge.net/DTD/sodipodi-0.dtd"
   xmlns="http://www.w3.org/2000/svg"
   xmlns:svg="http://www.w3.org/2000/svg">
  <sodipodi:namedview
     id="namedview885"
     pagecolor="#ffffff"
     bordercolor="#666666"
     borderopacity="1.0"
     inkscape:showpageshadow="2"
     inkscape:pageopacity="0.0"
     inkscape:pagecheckerboard="0"
     inkscape:deskcolor="#d1d1d1" />
  <g
     clip-path="url(#clip0_1_2204)"
     id="g876">
    <path
       d="M 24.856,3.14401 C 23.13,1.52161 20.7739,0.601214 18.1738,0.256914 15.6907,-0.072186 14,0.00881404 14,0.00881404 c 0,0 -1.691,-0.08100004 -4.17421,0.24809996 -2.6,0.3443 -4.956,1.264696 -6.6815,2.887096 -1.6228,1.7258 -2.543099,4.0819 -2.887599,6.6819 -0.3291004,2.48299 -0.2478004,4.17399 -0.2478004,4.17399 0,0 -0.0813,1.6908 0.2478004,4.174 0.3445,2.5998 1.264799,4.9561 2.887399,6.6819 1.7257,1.6226 4.0817,2.5428 6.6817,2.8875 C 12.309,28.0722 14,27.9912 14,27.9912 c 0,0 1.6907,0.081 4.1738,-0.2479 2.6001,-0.3447 4.9562,-1.2649 6.6818,-2.8875 1.623,-1.7258 2.5432,-4.0821 2.8877,-6.6819 0.3289,-2.4832 0.2479,-4.174 0.2479,-4.174 0,0 0.081,-1.691 -0.2479,-4.17399 -0.3445,-2.6 -1.2647,-4.9561 -2.8873,-6.6819 z"
       fill="#8b8b8b"
       id="path872" />
    <path
       d="m 15.0065,18.08 c 0,0.4244 -0.3841,0.759 -0.8241,0.6746 -0.3263,-0.0632 -0.5509,-0.3675 -0.5509,-0.7003 v -4.1809 h -0.8406 c -0.3327,0 -0.638,-0.2246 -0.7003,-0.5518 -0.0843,-0.4391 0.2502,-0.8232 0.6747,-0.8232 h 1.7829 c 0.253,0 0.4583,0.2044 0.4583,0.4583 z M 14,9.18095 c 0.5069,0 0.9167,0.4107 0.9167,0.91665 0,0.5061 -0.4098,0.9167 -0.9167,0.9167 -0.506,0 -0.9167,-0.4106 -0.9167,-0.9167 0,-0.50595 0.4107,-0.91665 0.9167,-0.91665 z m 0,-2.8582 c -4.23319,0 -7.67709,3.4439 -7.67709,7.67715 0,4.2332 3.4439,7.6771 7.67709,7.6771 4.2341,0 7.6771,-3.4439 7.6771,-7.6771 0,-4.23325 -3.443,-7.67715 -7.6771,-7.67715 z"
       fill="#ffffff"
       id="path874" />
  </g>
  <defs
     id="defs881">
    <clipPath
       id="clip0_1_2204">
      <rect
         width="28"
         height="28"
         fill="#ffffff"
         id="rect878"
         x="0"
         y="0" />
    </clipPath>
  </defs>
</svg>

<svg width="28" height="28" viewBox="0 0 28 28" fill="none" xmlns="http://www.w3.org/2000/svg">
<g clip-path="url(#clip0_1_2204)">
<path d="M24.856 3.14401C23.13 1.52161 20.7739 0.601214 18.1738 0.256914C15.6907 -0.072186 14 0.00881404 14 0.00881404C14 0.00881404 12.309 -0.072186 9.82579 0.256914C7.22579 0.601214 4.86979 1.52161 3.14429 3.14401C1.52149 4.86981 0.601191 7.22591 0.256691 9.82591C-0.0724094 12.3089 0.0088906 13.9999 0.0088906 13.9999C0.0088906 13.9999 -0.0724094 15.6907 0.256691 18.1739C0.601191 20.7737 1.52149 23.13 3.14409 24.8558C4.86979 26.4784 7.22579 27.3986 9.82579 27.7433C12.309 28.0722 14 27.9912 14 27.9912C14 27.9912 15.6907 28.0722 18.1738 27.7433C20.7739 27.3986 23.13 26.4784 24.8556 24.8558C26.4786 23.13 27.3988 20.7737 27.7433 18.1739C28.0722 15.6907 27.9912 13.9999 27.9912 13.9999C27.9912 13.9999 28.0722 12.3089 27.7433 9.82591C27.3988 7.22591 26.4786 4.86981 24.856 3.14401Z" fill="#8B8B8B"/>
<path d="M15.0065 18.08C15.0065 18.5044 14.6224 18.839 14.1824 18.7546C13.8561 18.6914 13.6315 18.3871 13.6315 18.0543V13.8734H12.7909C12.4582 13.8734 12.1529 13.6488 12.0906 13.3216C12.0063 12.8825 12.3408 12.4984 12.7653 12.4984H14.5482C14.8012 12.4984 15.0065 12.7028 15.0065 12.9567V18.08ZM14 9.18095C14.5069 9.18095 14.9167 9.59165 14.9167 10.0976C14.9167 10.6037 14.5069 11.0143 14 11.0143C13.494 11.0143 13.0833 10.6037 13.0833 10.0976C13.0833 9.59165 13.494 9.18095 14 9.18095ZM14 6.32275C9.76681 6.32275 6.32291 9.76665 6.32291 13.9999C6.32291 18.2331 9.76681 21.677 14 21.677C18.2341 21.677 21.6771 18.2331 21.6771 13.9999C21.6771 9.76665 18.2341 6.32275 14 6.32275Z" fill="white"/>
</g>
<defs>
<clipPath id="clip0_1_2204">
<rect width="28" height="28" fill="white"/>
</clipPath>
</defs>
</svg>
